; generated by PrusaSlicer 2.2.0+linux-x64 on 2020-05-29 at 19:58:28 UTC

; 

; external perimeters extrusion width = 0.45mm
; perimeters extrusion width = 0.45mm
; infill extrusion width = 0.45mm
; solid infill extrusion width = 0.45mm
; top infill extrusion width = 0.40mm
; first layer extrusion width = 0.70mm

M107
M190 S60 ; set bed temperature and wait for it to be reached
M104 S200 ; set temperature
G28 ; home all axes
G29; Mesh bedleveling
G28 ; home all axes
G1 Z5 F5000 ; lift nozzle
M109 S200 ; set temperature and wait for it to be reached
G21 ; set units to millimeters
G90 ; use absolute coordinates
M82 ; use absolute distances for extrusion
G92 E0
; Filament gcode
G1 Z0.350 F7800.000
G1 E-2.00000 F2400.00000
G92 E0
G1 Z0.650 F7800.000
G1 X85.625 Y85.025
G1 Z0.350
G1 E2.00000 F2400.00000
G1 F1800.000
G1 X86.732 Y84.237 E2.12352
G1 X87.976 Y83.692 E2.24704
G1 X89.311 Y83.411 E2.37113
G1 X110.006 Y83.375 E4.25293
G1 X111.164 Y83.478 E4.35861
G1 X112.280 Y83.780 E4.46371
G1 X113.326 Y84.271 E4.56881
G1 X114.271 Y84.936 E4.67391
G1 X115.086 Y85.755 E4.77901
G1 X115.747 Y86.704 E4.88411
G1 X116.232 Y87.753 E4.98921
G1 X116.528 Y88.870 E5.09431
G1 X116.625 Y89.971 E5.19480
G1 X116.617 Y110.324 E7.04548
G1 X116.496 Y111.301 E7.13502
G1 X116.231 Y112.250 E7.22456
G1 X115.829 Y113.149 E7.31410
G1 X115.298 Y113.978 E7.40364
G1 X114.298 Y115.041 E7.53636
G1 X113.090 Y115.860 E7.66908
G1 X111.738 Y116.393 E7.80122
G1 X110.296 Y116.618 E7.93394
G1 X89.638 Y116.615 E9.81236
G1 X88.674 Y116.491 E9.90074
G1 X87.732 Y116.225 E9.98970
G1 X86.840 Y115.823 E10.07867
G1 X86.022 Y115.298 E10.16705
G1 X84.959 Y114.298 E10.29977
G1 X84.140 Y113.090 E10.43249
G1 X83.607 Y111.738 E10.56463
G1 X83.382 Y110.296 E10.69735
G1 X83.385 Y89.638 E12.57577
G1 X83.509 Y88.674 E12.66416
G1 X83.775 Y87.732 E12.75312
G1 X84.177 Y86.840 E12.84208
G1 X84.702 Y86.022 E12.93047
G1 X85.584 Y85.069 E13.04853
G1 E11.04853 F2400.00000
G92 E0
G1 Z0.650 F7800.000
G1 X108.200 Y108.200
G1 Z0.350
G1 E2.00000 F2400.00000
G1 F1800.000
G1 X91.800 Y108.200 E3.49129
G1 X91.800 Y91.800 E4.98257
G1 X108.200 Y91.800 E6.47386
G1 X108.200 Y108.140 E7.95969
G1 X108.825 Y108.825 F7800.000
G1 F1800.000
G1 X91.175 Y108.825 E9.56461
G1 X91.175 Y91.175 E11.16954
G1 X108.825 Y91.175 E12.77447
G1 X108.825 Y108.765 E14.37394
G1 X109.450 Y109.450 F7800.000
G1 F1800.000
G1 X90.550 Y109.450 E16.09251
G1 X90.550 Y90.550 E17.81108
G1 X109.450 Y90.550 E19.52965
G1 X109.450 Y109.390 E21.24276
G1 X109.064 Y109.346 F7800.000
G1 E19.24276 F2400.00000
G92 E0
G1 Z0.650 F7800.000
G1 X93.265 Y108.013
G1 Z0.350
G1 E2.00000 F2400.00000
G1 F1800.000
G1 X92.268 Y107.016 E2.12966
G1 X92.268 Y106.122 E2.21185
G1 X93.878 Y107.732 E2.42118
G1 X94.772 Y107.732 E2.50337
G1 X92.268 Y105.228 E2.82894
G1 X92.268 Y104.335 E2.91113
G1 X95.665 Y107.732 E3.35294
G1 X96.559 Y107.732 E3.43514
G1 X92.268 Y103.441 E3.99319
G1 X92.268 Y102.547 E4.07538
G1 X97.453 Y107.732 E4.74968
G1 X98.347 Y107.732 E4.83187
G1 X92.268 Y101.653 E5.62241
G1 X92.268 Y100.759 E5.70460
G1 X99.241 Y107.732 E6.61138
G1 X100.134 Y107.732 E6.69357
G1 X92.268 Y99.866 E7.71659
G1 X92.268 Y98.972 E7.79878
G1 X101.028 Y107.732 E8.93804
G1 X101.922 Y107.732 E9.02024
G1 X92.268 Y98.078 E10.27574
G1 X92.268 Y97.184 E10.35793
G1 X102.816 Y107.732 E11.72968
G1 X103.709 Y107.732 E11.81187
G1 X92.268 Y96.291 E13.29986
G1 X92.268 Y95.397 E13.38205
G1 X104.603 Y107.732 E14.98628
G1 X105.497 Y107.732 E15.06847
G1 X92.268 Y94.503 E16.78894
G1 X92.268 Y93.609 E16.87114
G1 X106.391 Y107.732 E18.70785
G1 X107.285 Y107.732 E18.79004
G1 X92.268 Y92.715 E20.74299
G1 X92.268 Y92.268 E20.78410
G1 X92.715 Y92.268 E20.82519
G1 X107.732 Y107.285 E22.77816
G1 X107.732 Y106.391 E22.86035
G1 X93.609 Y92.268 E24.69708
G1 X94.503 Y92.268 E24.77927
G1 X107.732 Y105.497 E26.49976
G1 X107.732 Y104.603 E26.58196
G1 X95.397 Y92.268 E28.18620
G1 X96.290 Y92.268 E28.26839
G1 X107.732 Y103.710 E29.75640
G1 X107.732 Y102.816 E29.83859
G1 X97.184 Y92.268 E31.21035
G1 X98.078 Y92.268 E31.29255
G1 X107.732 Y101.922 E32.54806
G1 X107.732 Y101.028 E32.63026
G1 X98.972 Y92.268 E33.76954
G1 X99.865 Y92.268 E33.85173
G1 X107.732 Y100.135 E34.87477
G1 X107.732 Y99.241 E34.95696
G1 X100.759 Y92.268 E35.86376
G1 X101.653 Y92.268 E35.94595
G1 X107.732 Y98.347 E36.73650
G1 X107.732 Y97.453 E36.81870
G1 X102.547 Y92.268 E37.49301
G1 X103.441 Y92.268 E37.57520
G1 X107.732 Y96.559 E38.13327
G1 X107.732 Y95.666 E38.21547
G1 X104.334 Y92.268 E38.65729
G1 X105.228 Y92.268 E38.73949
G1 X107.732 Y94.772 E39.06507
G1 X107.732 Y93.878 E39.14727
G1 X106.122 Y92.268 E39.35661
G1 X107.016 Y92.268 E39.43881
G1 X108.013 Y93.265 E39.56848
G1 Z0.650 F7800.000
M104 S180 ; set temperature
M140 S50 ; set bed temperature
G1 X109.004 Y109.004
G1 F3600.000
G1 X90.996 Y109.004 E40.43458
G1 X90.996 Y90.996 E41.30068
G1 X109.004 Y90.996 E42.16678
G1 X109.004 Y108.944 E43.02999
G1 X109.389 Y109.389 F7800.000
G1 F3600.000
G1 X90.611 Y109.389 E43.93319
G1 X90.611 Y90.611 E44.83638
G1 X109.389 Y90.611 E45.73958
G1 X109.389 Y109.329 E46.63989
G1 X109.775 Y109.775 F7800.000
G1 F1800.000
G1 X90.225 Y109.775 E47.58017
G1 X90.225 Y90.225 E48.52046
G1 X109.775 Y90.225 E49.46075
G1 X109.775 Y109.715 E50.39815
G1 X109.389 Y109.671 F7800.000
G1 X91.896 Y91.112
G1 F1200.000
G1 X91.285 Y91.722 E50.43986
G1 X91.285 Y92.270 E50.46636
G1 X92.270 Y91.285 E50.53369
G1 X92.818 Y91.285 E50.56019
G1 X91.285 Y92.818 E50.66498
G1 X91.285 Y93.366 E50.69148
G1 X93.366 Y91.285 E50.83376
G1 X93.915 Y91.285 E50.86026
G1 X91.285 Y93.915 E51.04001
G1 X91.285 Y94.463 E51.06650
G1 X94.463 Y91.285 E51.28373
G1 X95.011 Y91.285 E51.31023
G1 X91.285 Y95.011 E51.56493
G1 X91.285 Y95.559 E51.59143
G1 X95.559 Y91.285 E51.88360
G1 X96.107 Y91.285 E51.91010
G1 X91.285 Y96.107 E52.23975
G1 X91.285 Y96.655 E52.26625
G1 X96.655 Y91.285 E52.63338
G1 X97.203 Y91.285 E52.65988
G1 X91.285 Y97.203 E53.06448
G1 X91.285 Y97.752 E53.09098
G1 X97.752 Y91.285 E53.53305
G1 X98.300 Y91.285 E53.55955
G1 X91.285 Y98.300 E54.03911
G1 X91.285 Y98.848 E54.06560
G1 X98.848 Y91.285 E54.58263
G1 X99.396 Y91.285 E54.60913
G1 X91.285 Y99.396 E55.16363
G1 X91.285 Y99.944 E55.19013
G1 X99.944 Y91.285 E55.78211
G1 X100.492 Y91.285 E55.80861
G1 X91.285 Y100.492 E56.43807
G1 X91.285 Y101.040 E56.46456
G1 X101.040 Y91.285 E57.13149
G1 X101.589 Y91.285 E57.15799
G1 X91.285 Y101.589 E57.86240
G1 X91.285 Y102.137 E57.88890
G1 X102.137 Y91.285 E58.63078
G1 X102.685 Y91.285 E58.65728
G1 X91.285 Y102.685 E59.43663
G1 X91.285 Y103.233 E59.46313
G1 X103.233 Y91.285 E60.27996
G1 X103.781 Y91.285 E60.30646
G1 X91.285 Y103.781 E61.16077
G1 X91.285 Y104.329 E61.18726
G1 X104.329 Y91.285 E62.07905
G1 X104.877 Y91.285 E62.10555
G1 X91.285 Y104.877 E63.03480
G1 X91.285 Y105.426 E63.06130
G1 X105.426 Y91.285 E64.02803
G1 X105.974 Y91.285 E64.05453
G1 X91.285 Y105.974 E65.05874
G1 X91.285 Y106.522 E65.08524
G1 X106.522 Y91.285 E66.12692
G1 X107.070 Y91.285 E66.15342
G1 X91.285 Y107.070 E67.23258
G1 X91.285 Y107.618 E67.25908
G1 X107.618 Y91.285 E68.37571
G1 X108.166 Y91.285 E68.40221
G1 X91.285 Y108.166 E69.55632
G1 X91.285 Y108.715 E69.58282
G1 X108.715 Y91.285 E70.77441
G1 X108.715 Y91.834 E70.80090
G1 X91.834 Y108.715 E71.95502
G1 X92.382 Y108.715 E71.98152
G1 X108.715 Y92.382 E73.09816
G1 X108.715 Y92.930 E73.12466
G1 X92.930 Y108.715 E74.20382
G1 X93.478 Y108.715 E74.23032
G1 X108.715 Y93.478 E75.27201
G1 X108.715 Y94.026 E75.29851
G1 X94.026 Y108.715 E76.30272
G1 X94.574 Y108.715 E76.32922
G1 X108.715 Y94.574 E77.29596
G1 X108.715 Y95.122 E77.32246
G1 X95.122 Y108.715 E78.25172
G1 X95.671 Y108.715 E78.27822
G1 X108.715 Y95.671 E79.17001
G1 X108.715 Y96.219 E79.19651
G1 X96.219 Y108.715 E80.05082
G1 X96.767 Y108.715 E80.07732
G1 X108.715 Y96.767 E80.89416
G1 X108.715 Y97.315 E80.92066
G1 X97.315 Y108.715 E81.70002
G1 X97.863 Y108.715 E81.72652
G1 X108.715 Y97.863 E82.46841
G1 X108.715 Y98.411 E82.49491
G1 X98.411 Y108.715 E83.19932
G1 X98.959 Y108.715 E83.22582
G1 X108.715 Y98.959 E83.89275
G1 X108.715 Y99.508 E83.91925
G1 X99.508 Y108.715 E84.54871
G1 X100.056 Y108.715 E84.57521
G1 X108.715 Y100.056 E85.16719
G1 X108.715 Y100.604 E85.19369
G1 X100.604 Y108.715 E85.74820
G1 X101.152 Y108.715 E85.77470
G1 X108.715 Y101.152 E86.29174
G1 X108.715 Y101.700 E86.31824
G1 X101.700 Y108.715 E86.79779
G1 X102.248 Y108.715 E86.82429
G1 X108.715 Y102.248 E87.26638
G1 X108.715 Y102.796 E87.29288
G1 X102.796 Y108.715 E87.69748
G1 X103.345 Y108.715 E87.72398
G1 X108.715 Y103.345 E88.09112
G1 X108.715 Y103.893 E88.11761
G1 X103.893 Y108.715 E88.44727
G1 X104.441 Y108.715 E88.47377
G1 X108.715 Y104.441 E88.76595
G1 X108.715 Y104.989 E88.79245
G1 X104.989 Y108.715 E89.04716
G1 X105.537 Y108.715 E89.07366
G1 X108.715 Y105.537 E89.29089
G1 X108.715 Y106.085 E89.31739
G1 X106.085 Y108.715 E89.49714
G1 X106.633 Y108.715 E89.52364
G1 X108.715 Y106.633 E89.66592
G1 X108.715 Y107.182 E89.69242
G1 X107.182 Y108.715 E89.79723
G1 X107.730 Y108.715 E89.82373
G1 X108.715 Y107.730 E89.89105
G1 X108.715 Y108.278 E89.91755
G1 X108.104 Y108.888 E89.95927
G1 Z0.950 F7800.000
G1 X109.004 Y109.004
G1 F3600.000
G1 X90.996 Y109.004 E90.82537
G1 X90.996 Y90.996 E91.69147
G1 X109.004 Y90.996 E92.55757
G1 X109.004 Y108.944 E93.42079
G1 X109.389 Y109.389 F7800.000
G1 F3600.000
G1 X90.611 Y109.389 E94.32398
G1 X90.611 Y90.611 E95.22718
G1 X109.389 Y90.611 E96.13037
G1 X109.389 Y109.329 E97.03068
G1 X109.775 Y109.775 F7800.000
G1 F1800.000
G1 X90.225 Y109.775 E97.97097
G1 X90.225 Y90.225 E98.91126
G1 X109.775 Y90.225 E99.85154
G1 X109.775 Y109.715 E100.78895
G1 X109.389 Y109.671 F7800.000
G1 X91.112 Y108.104
G1 F1200.000
G1 X91.722 Y108.715 E100.83066
G1 X92.270 Y108.715 E100.85716
G1 X91.285 Y107.730 E100.92448
G1 X91.285 Y107.182 E100.95098
G1 X92.818 Y108.715 E101.05578
G1 X93.366 Y108.715 E101.08228
G1 X91.285 Y106.634 E101.22455
G1 X91.285 Y106.085 E101.25105
G1 X93.915 Y108.715 E101.43080
G1 X94.463 Y108.715 E101.45730
G1 X91.285 Y105.537 E101.67452
G1 X91.285 Y104.989 E101.70102
G1 X95.011 Y108.715 E101.95572
G1 X95.559 Y108.715 E101.98222
G1 X91.285 Y104.441 E102.27440
G1 X91.285 Y103.893 E102.30089
G1 X96.107 Y108.715 E102.63055
G1 X96.655 Y108.715 E102.65704
G1 X91.285 Y103.345 E103.02417
G1 X91.285 Y102.797 E103.05067
G1 X97.203 Y108.715 E103.45527
G1 X97.752 Y108.715 E103.48177
G1 X91.285 Y102.248 E103.92385
G1 X91.285 Y101.700 E103.95035
G1 X98.300 Y108.715 E104.42990
G1 X98.848 Y108.715 E104.45640
G1 X91.285 Y101.152 E104.97342
G1 X91.285 Y100.604 E104.99992
G1 X99.396 Y108.715 E105.55443
G1 X99.944 Y108.715 E105.58093
G1 X91.285 Y100.056 E106.17290
G1 X91.285 Y99.508 E106.19940
G1 X100.492 Y108.715 E106.82886
G1 X101.040 Y108.715 E106.85536
G1 X91.285 Y98.960 E107.52229
G1 X91.285 Y98.411 E107.54878
G1 X101.589 Y108.715 E108.25319
G1 X102.137 Y108.715 E108.27969
G1 X91.285 Y97.863 E109.02157
G1 X91.285 Y97.315 E109.04807
G1 X102.685 Y108.715 E109.82742
G1 X103.233 Y108.715 E109.85392
G1 X91.285 Y96.767 E110.67075
G1 X91.285 Y96.219 E110.69725
G1 X103.781 Y108.715 E111.55156
G1 X104.329 Y108.715 E111.57806
G1 X91.285 Y95.671 E112.46984
G1 X91.285 Y95.123 E112.49634
G1 X104.877 Y108.715 E113.42559
G1 X105.426 Y108.715 E113.45209
G1 X91.285 Y94.574 E114.41883
G1 X91.285 Y94.026 E114.44532
G1 X105.974 Y108.715 E115.44953
G1 X106.522 Y108.715 E115.47603
G1 X91.285 Y93.478 E116.51771
G1 X91.285 Y92.930 E116.54421
G1 X107.070 Y108.715 E117.62337
G1 X107.618 Y108.715 E117.64987
G1 X91.285 Y92.382 E118.76650
G1 X91.285 Y91.834 E118.79300
G1 X108.166 Y108.715 E119.94711
G1 X108.715 Y108.715 E119.97361
G1 X91.285 Y91.285 E121.16520
G1 X91.834 Y91.285 E121.19169
G1 X108.715 Y108.166 E122.34581
G1 X108.715 Y107.618 E122.37231
G1 X92.382 Y91.285 E123.48895
G1 X92.930 Y91.285 E123.51545
G1 X108.715 Y107.070 E124.59461
G1 X108.715 Y106.522 E124.62111
G1 X93.478 Y91.285 E125.66280
G1 X94.026 Y91.285 E125.68930
G1 X108.715 Y105.974 E126.69352
G1 X108.715 Y105.426 E126.72002
G1 X94.574 Y91.285 E127.68675
G1 X95.122 Y91.285 E127.71325
G1 X108.715 Y104.878 E128.64252
G1 X108.715 Y104.329 E128.66902
G1 X95.671 Y91.285 E129.56080
G1 X96.219 Y91.285 E129.58730
G1 X108.715 Y103.781 E130.44162
G1 X108.715 Y103.233 E130.46811
G1 X96.767 Y91.285 E131.28495
G1 X97.315 Y91.285 E131.31145
G1 X108.715 Y102.685 E132.09081
G1 X108.715 Y102.137 E132.11731
G1 X97.863 Y91.285 E132.85920
G1 X98.411 Y91.285 E132.88570
G1 X108.715 Y101.589 E133.59011
G1 X108.715 Y101.041 E133.61661
G1 X98.959 Y91.285 E134.28354
G1 X99.508 Y91.285 E134.31004
G1 X108.715 Y100.492 E134.93950
G1 X108.715 Y99.944 E134.96600
G1 X100.056 Y91.285 E135.55799
G1 X100.604 Y91.285 E135.58449
G1 X108.715 Y99.396 E136.13900
G1 X108.715 Y98.848 E136.16549
G1 X101.152 Y91.285 E136.68253
G1 X101.700 Y91.285 E136.70903
G1 X108.715 Y98.300 E137.18859
G1 X108.715 Y97.752 E137.21509
G1 X102.248 Y91.285 E137.65717
G1 X102.796 Y91.285 E137.68367
G1 X108.715 Y97.204 E138.08828
G1 X108.715 Y96.655 E138.11478
G1 X103.345 Y91.285 E138.48191
G1 X103.893 Y91.285 E138.50841
G1 X108.715 Y96.107 E138.83806
G1 X108.715 Y95.559 E138.86456
G1 X104.441 Y91.285 E139.15675
G1 X104.989 Y91.285 E139.18324
G1 X108.715 Y95.011 E139.43795
G1 X108.715 Y94.463 E139.46445
G1 X105.537 Y91.285 E139.68168
G1 X106.085 Y91.285 E139.70818
G1 X108.715 Y93.915 E139.88794
G1 X108.715 Y93.367 E139.91444
G1 X106.633 Y91.285 E140.05672
G1 X107.182 Y91.285 E140.08321
G1 X108.715 Y92.818 E140.18802
G1 X108.715 Y92.270 E140.21452
G1 X107.730 Y91.285 E140.28185
G1 X108.278 Y91.285 E140.30835
G1 X108.888 Y91.896 E140.35007
M106 S244.8
G1 Z1.250 F7800.000
G1 X109.004 Y109.004
G1 F3600.000
G1 X90.996 Y109.004 E141.21617
G1 X90.996 Y90.996 E142.08227
G1 X109.004 Y90.996 E142.94837
G1 X109.004 Y108.944 E143.81158
G1 X109.389 Y109.389 F7800.000
G1 F3600.000
G1 X90.611 Y109.389 E144.71478
G1 X90.611 Y90.611 E145.61797
G1 X109.389 Y90.611 E146.52116
G1 X109.389 Y109.329 E147.42147
G1 X109.775 Y109.775 F7800.000
G1 F1800.000
G1 X90.225 Y109.775 E148.36176
G1 X90.225 Y90.225 E149.30205
G1 X109.775 Y90.225 E150.24234
G1 X109.775 Y109.715 E151.17974
G1 X109.389 Y109.671 F7800.000
G1 X107.472 Y108.888
G1 F5400.000
G1 X108.715 Y107.646 E151.26423
G1 X108.715 Y102.192 E151.52652
G1 X102.192 Y108.715 E151.97015
G1 X96.739 Y108.715 E152.23245
G1 X108.715 Y96.739 E153.04701
G1 X108.715 Y91.285 E153.30931
G1 X91.285 Y108.715 E154.49481
G1 X91.285 Y103.261 E154.75711
G1 X103.261 Y91.285 E155.57167
G1 X97.808 Y91.285 E155.83397
G1 X91.285 Y97.808 E156.27760
G1 X91.285 Y92.354 E156.53989
G1 X92.528 Y91.112 E156.62438
G1 X108.888 Y92.528 F7800.000
G1 F5400.000
G1 X107.646 Y91.285 E156.70887
G1 X102.192 Y91.285 E156.97117
G1 X108.715 Y97.808 E157.41480
G1 X108.715 Y103.261 E157.67709
G1 X96.739 Y91.285 E158.49166
G1 X91.285 Y91.285 E158.75395
G1 X108.715 Y108.715 E159.93946
G1 X103.261 Y108.715 E160.20175
G1 X91.285 Y96.739 E161.01632
G1 X91.285 Y102.192 E161.27861
G1 X97.808 Y108.715 E161.72224
G1 X92.354 Y108.715 E161.98454
G1 X91.112 Y107.472 E162.06903
G1 Z1.550 F7800.000
G1 X109.004 Y109.004
G1 F3600.000
G1 X90.996 Y109.004 E162.93513
G1 X90.996 Y90.996 E163.80123
G1 X109.004 Y90.996 E164.66733
G1 X109.004 Y108.944 E165.53054
G1 X109.389 Y109.389 F7800.000
G1 F3600.000
G1 X90.611 Y109.389 E166.43374
G1 X90.611 Y90.611 E167.33693
G1 X109.389 Y90.611 E168.24013
G1 X109.389 Y109.329 E169.14043
G1 X109.775 Y109.775 F7800.000
G1 F1800.000
G1 X90.225 Y109.775 E170.08072
G1 X90.225 Y90.225 E171.02101
G1 X109.775 Y90.225 E171.96130
G1 X109.775 Y109.715 E172.89870
G1 X109.389 Y109.671 F7800.000
G1 X107.472 Y108.888
G1 F5400.000
G1 X108.715 Y107.646 E172.98319
G1 X108.715 Y102.192 E173.24549
G1 X102.192 Y108.715 E173.68911
G1 X96.739 Y108.715 E173.95141
G1 X108.715 Y96.739 E174.76597
G1 X108.715 Y91.285 E175.02827
G1 X91.285 Y108.715 E176.21377
G1 X91.285 Y103.261 E176.47607
G1 X103.261 Y91.285 E177.29064
G1 X97.808 Y91.285 E177.55293
G1 X91.285 Y97.808 E177.99656
G1 X91.285 Y92.354 E178.25885
G1 X92.528 Y91.112 E178.34334
G1 X108.888 Y92.528 F7800.000
G1 F5400.000
G1 X107.646 Y91.285 E178.42784
G1 X102.192 Y91.285 E178.69013
